_site/images/verification-page/verify-icon-white.svg

<svg fill="none" height="110" viewBox="0 0 110 110" width="110" xmlns="http://www.w3.org/2000/svg" xmlns:xlink="http://www.w3.org/1999/xlink"><filter id="a" color-interpolation-filters="sRGB" filterUnits="userSpaceOnUse" height="110" width="110" x="0" y="0"><feFlood flood-opacity="0" result="BackgroundImageFix"/><feColorMatrix in="SourceAlpha" result="hardAlpha" type="matrix" values="0 0 0 0 0 0 0 0 0 0 0 0 0 0 0 0 0 0 127 0"/><feOffset dy="6"/><feGaussianBlur stdDeviation="7.5"/><feColorMatrix type="matrix" values="0 0 0 0 0.164706 0 0 0 0 0.439216 0 0 0 0 0.690196 0 0 0 0.15 0"/><feBlend in2="BackgroundImageFix" mode="normal" result="effect1_dropShadow_3524:17082"/><feBlend in="SourceGraphic" in2="effect1_dropShadow_3524:17082" mode="normal" result="shape"/></filter><clipPath id="b"><path d="m37 31h36v36h-36z"/></clipPath><g filter="url(#a)"><rect fill="#f9fcff" height="80" rx="25" width="80" x="15" y="9"/></g><g clip-path="url(#b)" fill="#00769d"><path d="m72.3809 39.7179c-.0584-.4892-.4485-.8727-.9385-.9239-.022-.0023-2.2166-.2381-3.7327-.9681-1.2786-.6156-2.2831-1.526-2.7346-1.9751v-3.7961c0-.5825-.4722-1.0547-1.0547-1.0547h-25.3125c-.5825 0-1.0547.4722-1.0547 1.0547v33.8906c0 .5825.4722 1.0547 1.0547 1.0547h18.5695.0001.0001c.2853 0 .5579-.1211.7457-.309l6.7366-6.7365c.1912-.1883.3151-.4568.3151-.7515v-3.615c3.4977-2.1763 5.8834-5.5398 6.9148-9.7668.81-3.319.5046-5.9911.4911-6.1033zm-32.7182-6.6085h23.2031v2.7414c-.4523.4498-1.4565 1.3598-2.7345 1.9752-1.5162.73-3.7108.9657-3.7321.968-.4907.0506-.8806.4343-.9391.924-.0135.1121-.3189 2.7843.4909 6.1032 1.0314 4.2271 3.4171 7.5906 6.9148 9.7669v2.5603h-5.6883c-.5825 0-1.0547.4722-1.0547 1.0547v5.6875h-16.4601zm21.711 27.1483-3.1416 3.1416v-3.1416zm8.467-14.9365c-.9045 3.7068-2.8952 6.5435-5.9202 8.4406-4.5481-2.8521-6.5404-7.8857-6.4117-12.9966 2.5444-.4311 4.4021-1.1863 6.4117-3.0071 2.0055 1.8171 3.8623 2.5753 6.4133 3.0073.0248.9416-.0222 2.6259-.4931 4.5558z"/><path d="m68.4621 42.5391c-.441-.3804-1.1071-.331-1.4874.1099l-3.2158 3.7291-1.7885-1.7885c-.4118-.4118-1.0797-.4118-1.4916 0s-.4119 1.0796 0 1.4915l2.5915 2.5914c.4325.4325 1.1431.4084 1.5445-.057l3.9572-4.589c.3804-.441.3312-1.1069-.1099-1.4874z"/><path d="m47.0444 35.2188h-4.2187c-.5825 0-1.0547.4722-1.0547 1.0546v4.2188c0 .5825.4722 1.0547 1.0547 1.0547h4.2187c.5825 0 1.0547-.4722 1.0547-1.0547v-4.2188c0-.5824-.4722-1.0546-1.0547-1.0546zm-1.0547 4.2187h-2.1093v-2.1094h2.1093z"/><path d="m47.0444 43.6562h-4.2187c-.5825 0-1.0547.4723-1.0547 1.0547v4.2188c0 .5825.4722 1.0547 1.0547 1.0547h4.2187c.5825 0 1.0547-.4722 1.0547-1.0547v-4.2188c0-.5824-.4722-1.0547-1.0547-1.0547zm-1.0547 4.2188h-2.1093v-2.1094h2.1093z"/><path d="m47.0444 52.0938h-4.2187c-.5825 0-1.0547.4722-1.0547 1.0546v4.2188c0 .5825.4722 1.0547 1.0547 1.0547h4.2187c.5825 0 1.0547-.4722 1.0547-1.0547v-4.2188c0-.5824-.4722-1.0546-1.0547-1.0546zm-1.0547 4.2187h-2.1093v-2.1094h2.1093z"/></g></svg>

<svg width="110" height="110" viewBox="0 0 110 110" fill="none" xmlns="http://www.w3.org/2000/svg">
<g filter="url(#filter0_d_3524:17082)">
<rect x="15" y="9" width="80" height="80" rx="25" fill="#F9FCFF"/>
</g>
<g clip-path="url(#clip0_3524:17082)">
<path d="M72.3809 39.7179C72.3225 39.2287 71.9324 38.8452 71.4424 38.794C71.4204 38.7917 69.2258 38.5559 67.7097 37.8259C66.4311 37.2103 65.4266 36.2999 64.9751 35.8508V32.0547C64.9751 31.4722 64.5029 31 63.9204 31H38.6079C38.0254 31 37.5532 31.4722 37.5532 32.0547V65.9453C37.5532 66.5278 38.0254 67 38.6079 67H57.1774H57.1775H57.1776C57.4629 67 57.7355 66.8789 57.9233 66.691L64.6599 59.9545C64.8511 59.7662 64.975 59.4977 64.975 59.203V55.588C68.4727 53.4117 70.8584 50.0482 71.8898 45.8212C72.6998 42.5022 72.3944 39.8301 72.3809 39.7179ZM39.6627 33.1094H62.8658V35.8508C62.4135 36.3006 61.4093 37.2106 60.1313 37.826C58.6151 38.556 56.4205 38.7917 56.3992 38.794C55.9085 38.8446 55.5186 39.2283 55.4601 39.718C55.4466 39.8301 55.1412 42.5023 55.951 45.8212C56.9824 50.0483 59.3681 53.4118 62.8658 55.5881V58.1484H57.1775C56.595 58.1484 56.1228 58.6206 56.1228 59.2031V64.8906H39.6627V33.1094ZM61.3737 60.2577L58.2321 63.3993V60.2577H61.3737ZM69.8407 45.3212C68.9362 49.028 66.9455 51.8647 63.9205 53.7618C59.3724 50.9097 57.3801 45.8761 57.5088 40.7652C60.0532 40.3341 61.9109 39.5789 63.9205 37.7581C65.926 39.5752 67.7828 40.3334 70.3338 40.7654C70.3586 41.707 70.3116 43.3913 69.8407 45.3212Z" fill="#00769D"/>
<path d="M68.4621 42.5391C68.0211 42.1587 67.355 42.2081 66.9747 42.649L63.7589 46.3781L61.9704 44.5896C61.5586 44.1778 60.8907 44.1778 60.4788 44.5896C60.0669 45.0014 60.0669 45.6692 60.4788 46.0811L63.0703 48.6725C63.5028 49.105 64.2134 49.0809 64.6148 48.6155L68.572 44.0265C68.9524 43.5855 68.9032 42.9196 68.4621 42.5391Z" fill="#00769D"/>
<path d="M47.0444 35.2188H42.8257C42.2432 35.2188 41.771 35.691 41.771 36.2734V40.4922C41.771 41.0747 42.2432 41.5469 42.8257 41.5469H47.0444C47.6269 41.5469 48.0991 41.0747 48.0991 40.4922V36.2734C48.0991 35.691 47.6269 35.2188 47.0444 35.2188ZM45.9897 39.4375H43.8804V37.3281H45.9897V39.4375Z" fill="#00769D"/>
<path d="M47.0444 43.6562H42.8257C42.2432 43.6562 41.771 44.1285 41.771 44.7109V48.9297C41.771 49.5122 42.2432 49.9844 42.8257 49.9844H47.0444C47.6269 49.9844 48.0991 49.5122 48.0991 48.9297V44.7109C48.0991 44.1285 47.6269 43.6562 47.0444 43.6562ZM45.9897 47.875H43.8804V45.7656H45.9897V47.875Z" fill="#00769D"/>
<path d="M47.0444 52.0938H42.8257C42.2432 52.0938 41.771 52.566 41.771 53.1484V57.3672C41.771 57.9497 42.2432 58.4219 42.8257 58.4219H47.0444C47.6269 58.4219 48.0991 57.9497 48.0991 57.3672V53.1484C48.0991 52.566 47.6269 52.0938 47.0444 52.0938ZM45.9897 56.3125H43.8804V54.2031H45.9897V56.3125Z" fill="#00769D"/>
</g>
<defs>
<filter id="filter0_d_3524:17082" x="0" y="0" width="110" height="110" filterUnits="userSpaceOnUse" color-interpolation-filters="sRGB">
<feFlood flood-opacity="0" result="BackgroundImageFix"/>
<feColorMatrix in="SourceAlpha" type="matrix" values="0 0 0 0 0 0 0 0 0 0 0 0 0 0 0 0 0 0 127 0" result="hardAlpha"/>
<feOffset dy="6"/>
<feGaussianBlur stdDeviation="7.5"/>
<feColorMatrix type="matrix" values="0 0 0 0 0.164706 0 0 0 0 0.439216 0 0 0 0 0.690196 0 0 0 0.15 0"/>
<feBlend mode="normal" in2="BackgroundImageFix" result="effect1_dropShadow_3524:17082"/>
<feBlend mode="normal" in="SourceGraphic" in2="effect1_dropShadow_3524:17082" result="shape"/>
</filter>
<clipPath id="clip0_3524:17082">
<rect width="36" height="36" fill="white" transform="translate(37 31)"/>
</clipPath>
</defs>
</svg>
